!!!!SEGMENT: pl-kk--kk-i-7--065_asola-giovanni-mateo-iste-sanctus.krn
!!!id: 16xx:904
!!!COM: Asola, Giovanni Mateo
!!!OTL: Iste sanctus
!!!PDT:
!!!SMS-siglum: PL-Kk
!!!SMS-shelfmark: Kk.I.7
!!!NIFC-rismID: 300258142
!!!URL-scan: http://repozytorium.nifc.pl/skany/pl-kk-nut--i-7
!!!ONB-nifc: UWAGA: C (skan 0061-0062, s.115-116), A (0147-0148, s.115-116), T (0224-0225, s.111-112), B (0311-0312, s. 109-110). Następny utwór: Sancti mei
!!!SMS-variant:
!!!SMS-altvar:
**kern	**text	**kern	**text	**kern	**text	**kern	**text
*part4	*part4	*part3	*part3	*part2	*part2	*part1	*part1
*staff4	*staff4	*staff3	*staff3	*staff2	*staff2	*staff1	*staff1
*I"BASSVS.	*	*I"TENOR.	*	*I"ALTVS.	*	*I"CANTVS.	*
*I'B	*	*I'T	*	*I'A	*	*I'C	*
*clefF3	*	*clefC4	*	*clefC3	*	*clefC2	*
*k[]	*	*k[]	*	*k[]	*	*k[]	*
*M2/1	*	*M2/1	*	*M2/1	*	*M2/1	*
*met(C|)	*	*met(C|)	*	*met(C|)	*	*met(C|)	*
=1-	=1-	=1-	=1-	=1-	=1-	=1-	=1-
!LO:TX:t=P:problem:kreska pseudotaktowa	!	!LO:TX:t=P:problem:Inicjał "I" na początku pięciolinii, przed kluczem	!	!LO:TX:t=P:problem:Inicjał "I" na początku pięciolinii, przed kluczem	!	!LO:TX:t=P:problem:Inicjał "I" na początku pięciolinii, przed kluczem	!
!LO:TX:t=P:problem:Iniciał "I" na początku pięciolinii, przed kluczem	!	!	!	!	!	!	!
0r	.	00r	.	1.e	Iſ-	00r	.
*	*	*	*	*2\right	*	*	*
!	!	!	!	!LO:TX:t=P:problem:kreska pseudotaktowa	!	!	!
.	.	.	.	2d\	-te	.	.
=2-	=2-	=2-	=2-	=2-	=2-	=2-	=2-
1.A	Iſ-	.	.	1c	San-	.	.
!	!	!	!	!LO:TX:t=P:problem:kreska pseudotaktowa	!	!	!
.	.	.	.	1B	-ctus	.	.
*2\right	*	*	*	*	*	*	*
2G\	-te	.	.	.	.	.	.
=3-	=3-	=3-	=3-	=3-	=3-	=3-	=3-
!	!	!	!	!	!	!LO:TX:t=P:problem:inicjał "I" na początku pięciolinii, przed kluczem	!
1F	San-	0r	.	2r	.	1.a	Iſ-
.	.	.	.	2A/	pro	.	.
!LO:TX:t=P:problem:kreska pseudotaktowa	!	!	!	!	!	!	!
1E	-ctus	.	.	2B/	le-	.	.
*	*	*	*	*	*	*2\right	*
!	!	!	!	!LO:TX:t=P:problem:kreska pseudotaktowa	!	!LO:TX:t=P:problem:kreska pseudotaktowa	!
.	.	.	.	2c/	-ge	2g\	-te
=4-	=4-	=4-	=4-	=4-	=4-	=4-	=4-
!	!	!LO:TX:t=P:problem:kreska pseudotaktowa	!	!	!	!	!
0r	.	1r	.	1.d	De-	1f	San-
!	!	!	!LO:TX:t=P:problem:Inicjał "I" na początku pięciolinii, przed kluczem	!	!	!LO:TX:t=P:problem:kreska pseudotaktowa	!
.	.	1.A	Iſ-	.	.	1e	-ct(us)
.	.	.	.	2c/	-i	.	.
=5-	=5-	=5-	=5-	=5-	=5-	=5-	=5-
!LO:TX:t=P:problem:kreska pseudotaktowa	!	!	!	!LO:TX:t=P:problem:kreska pseudotaktowa	!	!	!
1r	.	.	.	1B	ſu-	2rc	.
*	*	*	*	*	*	*	*ij
.	.	2G/	-te	.	.	1e	Iſ-
*	*ij	*	*	*	*	*	*
!	!	!	!	!LO:TX:t=P:problem:kreska pseudotaktowa	!	!	!
1.A	Iſ-	1F	San-	1A	-i	.	.
!	!	!	!	!	!	!LO:TX:t=P:problem:kreska pseudotaktowa	!
.	.	.	.	.	.	2d/	-te
=6-	=6-	=6-	=6-	=6-	=6-	=6-	=6-
!	!	!LO:TX:t=P:problem:kreska pseudotaktowa	!	!	!	!	!
.	.	1E	-ctus	2r	.	4c/	San-
.	.	.	.	.	.	4B/	.
2G\	-te	.	.	2B/	pro	1e	.
*lig	*	*	*	*	*	*	*
1F	San-	2r	.	2c/	le-	.	.
!	!	!	!	!LO:TX:t=P:problem:kreska pseudotaktowa	!	!	!
.	.	2A/	pro	2A/	-ge	2d/	.
=7-	=7-	=7-	=7-	=7-	=7-	=7-	=7-
!LO:TX:t=P:problem:kreska pseudotaktowa	!	!	!	!	!	!LO:TX:t=P:problem:kreska pseudotaktowa	!
1E	.	2A/	le-	2c/	De-	1e	-ct(us)
*	*	*	*	*	*	*	*Xij
!	!	!LO:TX:t=P:problem:kreska pseudotaktowa	!	!LO:TX:t=P:problem:kreska pseudotaktowa	!	!	!
.	.	2G/	.	2B/	-i	.	.
*Xlig	*	*2\right	*	*	*	*	*
!LO:TX:t=P:problem:kreska pseudotaktowa	!	!	!	!	!	!	!
1AA	-ctus	2.c\	-ge	2.A/	ſu-	2r	.
*	*Xij	*	*	*	*	*	*
.	.	.	.	.	.	2e/	pro
!	!	!LO:TX:t=P:problem:4\right:global	!	!	!	!	!
.	.	4B\	.	4B/	.	.	.
=8-	=8-	=8-	=8-	=8-	=8-	=8-	=8-
0r	.	2A/	De-	4c/	.	2f\	le-
!	!	!	!	!LO:TX:t=P:problem:4\right:global	!	!	!
.	.	.	.	4d\	.	.	.
!	!	!LO:TX:t=P:problem:kreska pseudotaktowa	!	!	!	!LO:TX:t=P:problem:kreska pseudotaktowa	!
.	.	2G/	-i	1e	.	2g\	-ge
.	.	1F	ſu-	.	.	1.a	De-
!	!	!	!	!LO:TX:t=P:problem:kreska pseudotaktowa	!	!	!
.	.	.	.	2d\	.	.	.
=9-	=9-	=9-	=9-	=9-	=9-	=9-	=9-
!	!	!	!	!LO:TX:t=P:problem:kreska pseudotaktowa	!	!	!
2r	.	2E,/	-i,	1e	-i	.	.
!LO:TX:t=P:problem:kreska pseudotaktowa	!	!LO:TX:t=P:problem:kreska pseudotaktowa	!	!	!	!	!
2E/	pro	2G/	pro	.	.	2g\	-i
!	!	!	!	!	!	!LO:TX:t=P:problem:kreska pseudotaktowa	!
2F/	le-	2A/	le-	0r	.	1f	Su-
2G\	-ge	2B\	-ge	.	.	.	.
=10-	=10-	=10-	=10-	=10-	=10-	=10-	=10-
1.A	De-	1.c	De-	.	.	2e,/	i
*	*	*	*	*	*	*	*ij
.	.	.	.	.	.	2e/	pro
.	.	.	.	2r	.	2f\	le-
!	!	!LO:TX:t=P:problem:kreska pseudotaktowa	!	!LO:TX:t=P:problem:kreska pseudotaktowa	!	!LO:TX:t=P:problem:kreska pseudotaktowa	!
2G\	-i	2B\	-i	2B/	pro	2g\	-ge
=11-	=11-	=11-	=11-	=11-	=11-	=11-	=11-
1F	Su-	1A	ſu-	2c/	le-	1.a	De-
.	.	.	.	2d\	-ge	.	.
!LO:TX:t=P:problem:kreska pseudotaktowa	!	!LO:TX:t=P:problem:kreska pseudotaktowa	!	!	!	!	!
1E	-i	1B	-i	1.e	De-	.	.
.	.	.	.	.	.	2g\	-i
=12-	=12-	=12-	=12-	=12-	=12-	=12-	=12-
1rF	.	00r	.	.	.	2.f\	Su-
!	!	!	!	!LO:SIC:v:t=custos c	!	!	!
!	!	!	!	!LO:TX:t=P:problem:kreska pseudotaktowa	!	!	!
.	.	.	.	2d\	-i	.	.
.	.	.	.	.	.	8e/L	.
!	!	!	!	!	!	!LO:TX:t=P:problem:kreska pseudotaktowa	!
.	.	.	.	.	.	8d/J	.
!	!	!	!	!LO:PB:g=original	!	!	!
!	!	!	!	!	!	!LO:SIC:v:t=custos a	!
2rE	.	.	.	2.c/	ſu-	2e/	.
*	*ij	*	*	*	*	*	*
!	!	!	!	!	!	!LO:LB:g=original	!
2C/	pro	.	.	.	.	1a\	.
.	.	.	.	8B/L	.	.	.
!	!	!	!	!LO:TX:t=P:problem:kreska pseudotaktowa	!	!	!
.	.	.	.	8A/J	.	.	.
=13-	=13-	=13-	=13-	=13-	=13-	=13-	=13-
2D/	le-	.	.	1B	.	.	.
!LO:TX:t=P:problem:kreska pseudotaktowa	!	!	!	!	!	!	!
2E/	-ge	.	.	.	.	2g\	.
!	!	!	!	!	!	!LO:TX:t=P:problem:kreska pseudotaktowa	!
1.F	De-	.	.	2A,/	-i	1a	-i
*	*	*	*	*	*ij	*	*Xij
!	!	!	!	!LO:TX:t=P:problem:kreska pseudotaktowa	!	!	!
.	.	.	.	2c/	pro	.	.
=14-	=14-	=14-	=14-	=14-	=14-	=14-	=14-
.	.	2r	.	2d\	le-	0r	.
*	*	*	*ij	*	*	*	*
!	!	!LO:TX:t=P:problem:kreska pseudotaktowa	!	!	!	!	!
2E/	-i	2G/	pro	2e\	-ge	.	.
1D	Su-	2A/	le-	1.f	De-	.	.
.	.	2B\	-ge	.	.	.	.
=15-	=15-	=15-	=15-	=15-	=15-	=15-	=15-
!LO:TX:t=P:problem:kreska pseudotaktowa	!	!	!	!	!	!	!
!LO:SIC:v:t=custos G	!	!	!	!	!	!LO:TX:t=P:problem:kreska pseudotaktowa	!
1C	-i	1.c	De-	.	.	1r	.
*	*Xij	*	*	*	*	*	*
!	!	!	!	!LO:TX:t=P:problem:kreska pseudotaktowa	!	!	!
.	.	.	.	2e\	-i	.	.
!LO:LB:g=original	!	!	!	!	!	!	!
2r	.	.	.	1d	ſu-	2r	.
!	!	!LO:TX:t=P:problem:kreska pseudotaktowa	!	!	!	!LO:TX:t=P:problem:kreska pseudotaktowa	!
2G\	cer-	2B\	-i	.	-i	2g\	cer-
=16-	=16-	=16-	=16-	=16-	=16-	=16-	=16-
!	!	!	!	!LO:TX:t=P:problem:kreska pseudotaktowa	!	!LO:TX:t=P:problem:4\right:global	!
2A\	.	1A	ſu-	1c	-i	4f\	.
*	*	*	*	*	*Xij	*	*
.	.	.	.	.	.	4e/	.
!LO:TX:t=P:problem:kreska pseudotaktowa:między nutą a kropką	!	!	!	!	!	!	!
2.c\	-ta-	.	.	.	.	4e/	.
.	.	.	.	.	.	8d/L	.
!	!	!	!	!	!	!LO:TX:t=P:problem:kreska pseudotaktowa	!
.	.	.	.	.	.	8c/J	.
!	!	!LO:SIC:v:t=custos c	!	!	!	!	!
!	!	!LO:TX:t=P:problem:kreska pseudotaktowa	!	!	!	!	!
.	.	1G	-i	2r	.	2d/	-ta-
*	*	*	*Xij	*	*	*	*
!LO:TX:t=P:problem:8\right:global	!	!	!	!	!	!	!
8B\L	.	.	.	.	.	.	.
8A\J	.	.	.	.	.	.	.
!	!	!	!	!LO:TX:t=P:problem:kreska pseudotaktowa	!	!	!
2B\	.	.	.	2d\	cer-	2.g\	.
!	!	!LO:LB:g=original	!	!	!	!	!
=17-	=17-	=17-	=17-	=17-	=17-	=17-	=17-
2c\	.	2r	.	2e\	-ta-	.	.
!	!	!	!	!	!	!LO:TX:t=P:problem:8\right:global	!
.	.	.	.	.	.	8f\L	.
.	.	.	.	.	.	8e\J	.
!LO:TX:t=P:problem:kreska pseudotaktowa	!	!LO:TX:t=P:problem:kreska pseudotaktowa	!	!	!	!LO:TX:t=P:problem:kreska pseudotaktowa	!
2A\	.	2c\	cer-	2.c/	.	2f\	.
!LO:TX:t=P:problem:kreska pseudotaktowa	!	!	!	!	!	!LO:TX:t=P:problem:kreska pseudotaktowa	!
1G	-uit	2d\	-ta-	.	.	0.g	-uit
.	.	.	.	8B/L	.	.	.
.	.	.	.	8A/J	.	.	.
!	!	!	!	!LO:TX:t=P:problem:kreska pseudotaktowa	!	!	!
.	.	2.e\	.	2B/	.	.	.
=18-	=18-	=18-	=18-	=18-	=18-	=18-	=18-
!	!	!	!	!LO:TX:t=P:problem:kreska pseudotaktowa	!	!	!
2rE	.	.	.	1c	-uit	.	.
.	.	4d\	.	.	.	.	.
!	!	!LO:TX:t=P:problem:kreska pseudotaktowa	!	!	!	!	!
2C/	cer-	2.c\	.	.	.	.	.
!LO:TX:t=P:problem:kreska pseudotaktowa	!	!	!	!	!	!	!
1G	-ta-	.	.	2r	.	.	.
.	.	8B\L	.	.	.	.	.
.	.	8A\J	.	.	.	.	.
*	*	*	*	*	*ij	*	*
.	.	2B\	.	2d\	cer-	.	.
=19-	=19-	=19-	=19-	=19-	=19-	=19-	=19-
!	!	!LO:TX:t=P:problem:kreska pseudotaktowa	!	!	!	!	!
2E/	-uit	1c	-uit	2e\	-ta-	2r	.
!	!	!	!	!LO:TX:t=P:problem:kreska pseudotaktowa	!	!	!
2F/	Vs-	.	.	2A/	-uit	2c/	cer-
*	*	*	*	*	*Xij	*	*
2D/	-q(ue)	2rc	.	2B/	Vs-	2d/	-ta-
*	*	*	*ij	*	*	*	*
!	!	!	!	!	!	!LO:TX:t=P:problem:kreska pseudotaktowa	!
2C/	ad	2c\	cer-	1c/	-que	2e/	-uit
=20-	=20-	=20-	=20-	=20-	=20-	=20-	=20-
1D	mor-	2A/	-ta-	.	.	1.f	Vs-
!	!	!	!	!LO:TX:t=P:problem:kreska pseudotaktowa	!	!	!
.	.	4G/	.	2B/	ad	.	.
.	.	4F/	.	.	.	.	.
!LO:TX:t=P:problem:kreska pseudotaktowa	!	!	!	!	!	!	!
1C	-t(em)	2G/	.	1c	mor-	.	.
!	!	!	!	!	!	!LO:TX:t=P:problem:kreska pseudotaktowa	!
.	.	2.c\	.	.	.	2e/	-q(ue)
=21-	=21-	=21-	=21-	=21-	=21-	=21-	=21-
!	!	!	!	!LO:TX:t=P:problem:kreska pseudotaktowa	!	!	!
2rE	.	.	.	1G	-t(em)	2d/	ad
.	.	8B\L	.	.	.	.	.
.	.	8A\J	.	.	.	.	.
2G\	Vs-	2B\	.	.	.	1g	mor-
!LO:TX:t=P:problem:kreska pseudotaktowa	!	!LO:TX:t=P:problem:kreska pseudotaktowa	!	!	!	!	!
1A	-que	1c	-uit	2r	.	.	.
*	*	*	*Xij	*	*	*	*
.	.	.	.	2c/	cer-	2f\	.
=22-	=22-	=22-	=22-	=22-	=22-	=22-	=22-
!	!	!	!	!LO:SIC:v:t=custos e	!	!LO:TX:t=P:problem:kreska pseudotaktowa	!
2G\	ad	2rc	.	2e\	-ta-	1g	-t(em)
!	!	!	!	!LO:LB:g=original	!	!	!
2c\	mor-	2c\	cer-	4e\	-uit	.	.
!	!	!	!	!LO:TX:t=P:problem:kreska pseudotaktowa	!	!	!
.	.	.	.	4e\	cer-	.	.
2B\	.	2G/	-ta-	2d\	-ta-	1r	.
!LO:TX:t=P:problem:kreska pseudotaktowa	!	!	!	!	!	!	!
2A\	.	4A/	-uit	4c/	-uit	.	.
*	*	*	*	*	*ij	*	*
!	!	!LO:TX:t=P:problem:kreska pseudotaktowa	!	!LO:TX:t=P:problem:kreska pseudotaktowa	!	!	!
.	.	4A/	Vs-	4c/	cer-	.	.
=23-	=23-	=23-	=23-	=23-	=23-	=23-	=23-
!LO:TX:t=P:problem:pod nutą zapisane jest "4"	!	!	!	!	!	!	!
00G	.	2B\	-q(ue)	2d\	-ta-	1.g	Vs-
!	!	!	!	!LO:TX:t=P:problem:kreska pseudotaktowa	!	!	!
.	.	2c\	ad	2e\	.	.	.
.	.	2d\	mor-	2d\	-uit	.	.
*	*	*	*	*	*Xij	*	*
!	!	!LO:TX:t=P:problem:kreska pseudotaktowa	!	!	!	!LO:TX:t=P:problem:kreska pseudotaktowa	!
.	.	2e\	.	2c/	Vs-	2g\	-q(ue)
=24-	=24-	=24-	=24-	=24-	=24-	=24-	=24-
.	.	2d\	.	2B/	-q(ue)	1g	ad
!	!	!	!	!LO:TX:t=P:problem:kreska pseudotaktowa	!	!	!
.	.	1c	.	2e\	ad	.	.
.	.	.	.	1d	mor-	0g	mor-
.	.	2B\	.	.	.	.	.
=25-	=25-	=25-	=25-	=25-	=25-	=25-	=25-
!LO:TX:t=P:problem:kreska pseudotaktowa	!	!	!	!LO:TX:t=P:problem:kreska pseudotaktowa	!	!	!
0.C	-tem	1c	.	1e	-t(em)	.	.
!	!	!	!	!	!	!LO:SIC:v:t=custos c	!
!	!	!LO:TX:t=P:problem:kreska pseudotaktowa	!	!	!	!LO:TX:t=P:problem:kreska pseudotaktowa	!
.	.	0G	-tem	2r	.	1e	-tem
.	.	.	.	2c/	et	.	.
!	!	!	!	!	!	!LO:PB:g=original	!
=26-	=26-	=26-	=26-	=26-	=26-	=26-	=26-
.	.	.	.	2e\	ã	2r	.
!	!	!	!	!	!	!LO:TX:t=P:problem:kreska pseudotaktowa	!
.	.	.	.	1g	Ver-	2c/	et
2rE	.	1rA	.	.	.	2e/	ã
!	!	!	!	!LO:TX:t=P:problem:kreska pseudotaktowa	!	!	!
2C/	et	.	.	2g\	-bis	1g\	Ver-
=27-	=27-	=27-	=27-	=27-	=27-	=27-	=27-
2E/	ã	2r	.	2e\	im-	.	.
!	!	!LO:SIC:v:t=custos B- + sylaba a	!	!	!	!LO:TX:t=P:problem:kreska pseudotaktowa	!
!	!	!LO:TX:t=P:problem:kreska pseudotaktowa	!	!	!	!	!
1G	Ver-	2G/	et	2e\	-pi-	2g\	-bis
!	!	!LO:PB:g=original	!	!	!	!	!
.	.	2B\	ã	2.d\	-o-	2g\	im-
!LO:SIC:v:t=custos G	!	!	!	!	!	!	!
!LO:TX:t=P:problem:kreska pseudotaktowa	!	!	!	!	!	!	!
2G\	-bis	1d\	Ver-	.	.	2g\	-pi-
!	!	!	!	!LO:TX:t=P:problem:kreska pseudotaktowa	!	!	!
.	.	.	.	4c/	.	.	.
!LO:LB:g=original	!	!	!	!	!	!	!
=28-	=28-	=28-	=28-	=28-	=28-	=28-	=28-
!	!	!	!	!	!	!LO:TX:t=P:problem:kreska pseudotaktowa	!
2G\	im-	.	.	4B/	.	1g	-o-
.	.	.	.	4A/	.	.	.
!	!	!LO:TX:t=P:problem:kreska pseudotaktowa	!	!	!	!	!
2G\	-pi-	2d\	-bis	1B	.	.	.
1G	-o-	2d\	im-	.	.	2d/	-rum
!	!	!	!	!LO:TX:t=P:problem:kreska pseudotaktowa	!	!	!
.	.	2d\	-pi-	2G/	-rum	2g\	non
=29-	=29-	=29-	=29-	=29-	=29-	=29-	=29-
!LO:TX:t=P:problem:kreska pseudotaktowa	!	!	!	!	!	!	!
1D	-rum	1d	-o-	2A/	non	2.f\	ti-
.	.	.	.	1d	ti-	.	.
!	!	!	!	!	!	!LO:TX:t=P:problem:kreska pseudotaktowa	!
.	.	.	.	.	.	4g\	.
!	!	!LO:TX:t=P:problem:kreska pseudotaktowa	!	!	!	!	!
2r	.	1A	-rum	.	.	4a\	.
.	.	.	.	.	.	4b\	.
*	*ij	*	*	*	*	*	*
2A\	et	.	.	2c/	-mu-	2.a\	.
=30-	=30-	=30-	=30-	=30-	=30-	=30-	=30-
!	!	!	!	!LO:TX:t=P:problem:kreska pseudotaktowa	!	!	!
2F/	ã	2r	.	0d	-it	.	.
.	.	.	.	.	.	4g\	.
1G	Ver-	1B	non	.	.	1g	.
!LO:TX:t=P:problem:kreska pseudotaktowa	!	!	!	!	!	!LO:TX:t=P:problem:kreska pseudotaktowa	!
2D/	-bis	2.d\	ti-	.	.	2f\	-mu-
=31-	=31-	=31-	=31-	=31-	=31-	=31-	=31-
!	!	!	!	!	!	!LO:TX:t=P:problem:kreska pseudotaktowa	!
2E/	im-	.	.	1r	.	1g	-it
.	.	4c\	.	.	.	.	.
2E/	-pi-	1c	-mu-	.	.	.	.
1D	-o-	.	.	2r	.	1r	.
*	*	*	*	*	*ij	*	*
!	!	!	!	!LO:TX:t=P:problem:kreska pseudotaktowa	!	!	!
.	.	2B\	.	2d\	et	.	.
=32-	=32-	=32-	=32-	=32-	=32-	=32-	=32-
!LO:TX:t=P:problem:kreska pseudotaktowa	!	!LO:TX:t=P:problem:kreska pseudotaktowa	!	!	!	!	!
1C	-rum	0c	-it	2e\	ã	2r	.
*	*Xij	*	*	*	*	*	*ij
!	!	!	!	!	!	!LO:TX:t=P:problem:kreska pseudotaktowa	!
.	.	.	.	1g	Ver-	2c/	et
2r	.	.	.	.	.	2e/	ã
!	!	!	!	!LO:SIC:v:t=custos e	!	!	!
!LO:TX:t=P:problem:kreska pseudotaktowa	!	!	!	!LO:TX:t=P:problem:kreska pseudotaktowa	!	!	!
2C/	et	.	.	2g\	-bis	1g\	Ver-
!	!	!	!	!LO:LB:g=original	!	!	!
=33-	=33-	=33-	=33-	=33-	=33-	=33-	=33-
2E/	ã	2rF	.	2e\	im-	.	.
!	!	!	!	!LO:TX:t=P:problem:kreska pseudotaktowa	!	!LO:TX:t=P:problem:kreska pseudotaktowa	!
1G	Ver-	2G/	et	2e\	-pi-	2g\	-bis
.	.	2B\	ã	2.d\	-o-	2g\	im-
!LO:TX:t=P:problem:kreska pseudotaktowa	!	!	!	!	!	!	!
2G\	-bis	1d\	Ver-	.	.	2g\	-pi-
.	.	.	.	4c/	-rum	.	.
=34-	=34-	=34-	=34-	=34-	=34-	=34-	=34-
2G\	im-	.	.	4B/	non	1g	-o-
.	.	.	.	4A/	ti-	.	.
!	!	!LO:TX:t=P:problem:kreska pseudotaktowa	!	!	!	!	!
2G\	-pi-	2d\	-bis	1B	-mu-	.	.
1G	-o-	2d\	im-	.	.	2d/	-rum
!	!	!	!	!LO:TX:t=P:problem:kreska pseudotaktowa	!	!LO:TX:t=P:problem:kreska pseudotaktowa	!
.	.	2d\	-pi-	2G/	-it	2g\	non
*	*	*	*	*	*Xij	*	*
=35-	=35-	=35-	=35-	=35-	=35-	=35-	=35-
!LO:TX:t=P:problem:kreska pseudotaktowa	!	!LO:TX:t=P:problem:kreska pseudotaktowa	!	!	!	!	!
1D	-rum	1d	-o-	2A/	non	2.f\	ti-
.	.	.	.	2.f\	ti-	.	.
.	.	.	.	.	.	4g\	.
1F	non	2A/	-r(um)	.	.	4a\	.
!	!	!	!	!	!	!LO:SIC:v:t=custos a	!
.	.	.	.	4e\	.	4b\	.
!	!	!	!	!	!	!LO:LB:g=original	!
.	.	2A/	non	1d\	.	2.a\	.
=36-	=36-	=36-	=36-	=36-	=36-	=36-	=36-
2.E/	ti-	2B\	ti-	.	.	.	.
.	.	.	.	.	.	4g\	.
!	!	!	!	!LO:TX:t=P:problem:kreska pseudotaktowa	!	!	!
.	.	4A/	.	2c/	-mu-	1g	.
!	!	!LO:TX:t=P:problem:kreska pseudotaktowa	!	!	!	!	!
4E/	-mu-	4G/	.	.	.	.	.
!LO:TX:t=P:problem:kreska pseudotaktowa	!	!	!	!LO:TX:t=P:problem:kreska pseudotaktowa	!	!	!
1D	-it	2.A/	.	0d	-it	.	.
!	!	!	!	!	!	!LO:TX:t=P:problem:kreska pseudotaktowa	!
.	.	.	.	.	.	2f\	mu-
.	.	4A/	-mu-	.	.	.	.
=37-	=37-	=37-	=37-	=37-	=37-	=37-	=37-
!	!	!LO:TX:t=P:problem:kreska pseudotaktowa	!	!	!	!LO:TX:t=P:problem:kreska pseudotaktowa	!
2r	.	1G	-it	.	.	1g,	-it
*	*	*	*	*	*	*	*Xij
2G\	fun-	.	.	.	.	.	.
!LO:TX:t=P:problem:kreska pseudotaktowa	!	!	!	!	!	!	!
1A	-da-	00r	.	2r	.	2e/	fun-
.	.	.	.	2c/	fun-	1f\	-da-
=38-	=38-	=38-	=38-	=38-	=38-	=38-	=38-
!LO:SIC:v:t=custos G	!	!	!	!LO:TX:t=P:problem:kreska pseudotaktowa	!	!	!
2F/	-tus	.	.	1d	-da-	.	.
!	!	!	!	!	!	!LO:TX:t=P:problem:kreska pseudotaktowa	!
!LO:PB:g=original	!	!	!	!	!	!	!
1G	e-	.	.	.	.	2d/	-t(us)
.	.	.	.	2B/	-t(us)	1e	e-
!LO:TX:t=P:problem:kreska pseudotaktowa	!	!	!	!	!	!	!
2E/	-nim	.	.	1c\	e-	.	.
=39-	=39-	=39-	=39-	=39-	=39-	=39-	=39-
1F	e-	.	.	.	.	2c/	-nim
!	!	!	!	!LO:TX:t=P:problem:kreska pseudotaktowa	!	!	!
.	.	.	.	2A/	-nim	1f	e-
!LO:TX:t=P:problem:kreska pseudotaktowa	!	!	!	!	!	!	!
1C	-rat	2r	.	1c	e-	.	.
!	!	!LO:TX:t=P:problem:kreska pseudotaktowa	!	!	!	!LO:TX:t=P:problem:kreska pseudotaktowa	!
.	.	2c\	fun-	.	.	2e/	-rat
=40-	=40-	=40-	=40-	=40-	=40-	=40-	=40-
!	!	!LO:TX:t=P:problem:kreska pseudotaktowa	!	!	!	!	!
!	!	!LO:SIC:v:t=custos B	!	!LO:TX:t=P:problem:kreska pseudotaktowa	!	!	!
1r	.	1d	-da-	0G	-rat	1.g	ſu-
!	!	!LO:LB:g=original	!	!	!	!	!
2r	.	2B\	-tus	.	.	.	.
*	*ij	*	*	*	*	*	*
!	!	!	!	!	!	!LO:TX:t=P:problem:kreska pseudotaktowa	!
2C/	fun-	1c\	e-	.	.	2e/	-p(ra)
=41-	=41-	=41-	=41-	=41-	=41-	=41-	=41-
!LO:TX:t=P:problem:kreska pseudotaktowa	!	!	!	!	!	!	!
1F	-da-	.	.	1r	.	2f\	fir-
.	.	2A/	-nim	.	.	2f\	-m(am)
2C/	-tus	1c	e-	2r	.	1e	pe-
1c\	e-	.	.	1g\	Su-	.	.
=42-	=42-	=42-	=42-	=42-	=42-	=42-	=42-
!	!	!LO:TX:t=P:problem:kreska pseudotaktowa	!	!	!	!LO:TX:t=P:problem:kreska pseudotaktowa	!
.	.	1G	-rat	.	.	1d	-tr(am)
!	!	!	!	!LO:TX:t=P:problem:kreska pseudotaktowa	!	!	!
2B\	-nim	.	.	2d\	-pra	.	.
!LO:TX:t=P:problem:kreska pseudotaktowa	!	!	!	!	!	!	!
1A	e-	0r	.	2e\	fir-	1r	.
.	.	.	.	2f\	.	.	.
=43-	=43-	=43-	=43-	=43-	=43-	=43-	=43-
2G,\	-rat	.	.	2.g\	-m(am)	2r	.
*	*Xij	*	*	*	*	*	*ij
!	!	!	!	!	!	!LO:TX:t=P:problem:kreska pseudotaktowa	!
1c	fun-	.	.	.	.	2g\	fun-
!	!	!	!	!LO:TX:t=P:problem:kreska pseudotaktowa	!	!	!
.	.	.	.	4f\	.	.	.
!	!	!LO:TX:t=P:problem:kreska pseudotaktowa	!	!	!	!	!
.	.	1r	.	2e\	pe-	1a	-da-
1d\	-da-	.	.	2f\	.	.	.
=44-	=44-	=44-	=44-	=44-	=44-	=44-	=44-
!	!	!	!	!LO:TX:t=P:problem:kreska pseudotaktowa	!	!	!
.	.	2r	.	1d	-tram	2f\	-t(us)
*	*	*	*ij	*	*	*	*
!LO:TX:t=P:problem:kreska pseudotaktowa	!	!	!	!	!	!	!
2B\	-t(us)	2d\	fun-	.	.	1g	e-
!	!	!LO:TX:t=P:problem:kreska pseudotaktowa	!	!	!	!	!
1c	e-	1e	-da-	1r	.	.	.
!	!	!	!	!	!	!LO:TX:t=P:problem:kreska pseudotaktowa	!
.	.	.	.	.	.	2e/	-nim
=45-	=45-	=45-	=45-	=45-	=45-	=45-	=45-
!	!	!	!	!LO:SIC:v:t=custos e	!	!	!
!	!	!	!	!LO:TX:t=P:problem:kreska pseudotaktowa	!	!	!
2A\	-nim	2c\	-tus	0r	.	1f	e-
1B	e-	1d	e-	.	.	.	.
.	.	.	.	.	.	2d/	-rat
!LO:TX:t=P:problem:kreska pseudotaktowa	!	!	!	!	!	!LO:TX:t=P:problem:kreska pseudotaktowa	!
2G\	-rat	2B\	-nim	.	.	2g\	ſu-
!	!	!	!	!LO:LB:g=original	!	!	!
=46-	=46-	=46-	=46-	=46-	=46-	=46-	=46-
!	!	!LO:TX:t=P:problem:kreska pseudotaktowa	!	!	!	!LO:SIC:v:t=custos a	!
1A	Su-	1c	e-	1e	fun-	2e/	-p(ra)
!	!	!	!	!	!	!LO:LB:g=original	!
.	.	.	.	.	.	1a	fir-
2F/	-pra	2A/	-rat	2f\	-da-	.	.
*	*	*	*Xij	*	*	*	*
!	!	!	!	!LO:TX:t=P:problem:kreska pseudotaktowa	!	!LO:TX:t=P:problem:kreska pseudotaktowa	!
1G\	fir-	1B\	su-	2d\	-t(us)	2g\	.
=47-	=47-	=47-	=47-	=47-	=47-	=47-	=47-
.	.	.	.	2g\	e-	2d/	-m(am)
!LO:TX:t=P:problem:kreska pseudotaktowa	!	!LO:TX:t=P:problem:kreska pseudotaktowa	!	!	!	!	!
2C/	-m(am)	2c\	-pra	2e\	-nim	1g	pe-
1D	pe-	2A/	fir-	1.d	e-	.	.
.	.	2A/	-m(am)	.	.	2f\	.
=48-	=48-	=48-	=48-	=48-	=48-	=48-	=48-
!LO:TX:t=P:problem:kreska pseudotaktowa	!	!	!	!	!	!LO:TX:t=P:problem:kreska pseudotaktowa	!
1G	-tr(am)	1B	pe-	.	.	1g	-tr(am)
*	*	*	*	*	*	*	*Xij
!	!	!	!	!LO:TX:t=P:problem:kreska pseudotaktowa	!	!	!
.	.	.	.	2d\	-rat	.	.
!	!	!LO:TX:t=P:problem:kreska pseudotaktowa	!	!	!	!	!
2r	.	1G	-tr(am)	2.B/	Su-	2r	.
1G\	fun-	.	.	.	.	2g\	fun-
.	.	.	.	4c/	.	.	.
=49-	=49-	=49-	=49-	=49-	=49-	=49-	=49-
.	.	2r	.	2d\	.	2g\	-da-
!	!	!	!	!LO:TX:t=P:problem:kreska pseudotaktowa	!	!LO:TX:t=P:problem:kreska pseudotaktowa	!
1A	-da-	1c	fun-	2c/	-pra	2e/	-t(us)
.	.	.	.	2A/	fir-	2a\	e-
!LO:TX:t=P:problem:kreska pseudotaktowa	!	!	!	!	!	!	!
2F/	-t(us)	1d\	-da-	2A/	-mam	2a\	-nim
=50-	=50-	=50-	=50-	=50-	=50-	=50-	=50-
!	!	!	!	!LO:TX:t=P:problem:kreska pseudotaktowa	!	!	!
1G	e-	.	.	1B	pe-	1.g	e-
!	!	!LO:TX:t=P:problem:kreska pseudotaktowa	!	!	!	!	!
.	.	2B\	-t(us)	.	.	.	.
2E/	-nim	2c\	non	2G/	-tram	.	.
!LO:SIC:v:t=custos C	!	!	!	!	!	!LO:TX:t=P:problem:kreska pseudotaktowa	!
1F\	e-	1A\	e-	2.c\	Su-	2a\	-rat
=51-	=51-	=51-	=51-	=51-	=51-	=51-	=51-
.	.	.	.	.	.	2f\	ſu-
.	.	.	.	4d\	.	.	.
!	!	!	!	!LO:TX:t=P:problem:kreska pseudotaktowa	!	!	!
!LO:LB:g=original	!	!	!	!	!	!	!
!LO:TX:t=P:problem:kreska pseudotaktowa	!	!	!	!	!	!	!
2C/	-rat	1c	.	2e\	.	2g\	-p(ra)
1.F	Su-	.	.	2A/	-pra	4a\	fir-
.	.	.	.	.	.	4g\	.
!	!	!LO:TX:t=P:problem:kreska pseudotaktowa	!	!	!	!	!
.	.	2A/	-rat	2.c\	fir-	4f\	.
!	!	!	!	!	!	!LO:TX:t=P:problem:kreska pseudotaktowa	!
.	.	.	.	.	.	4e/	.
=52-	=52-	=52-	=52-	=52-	=52-	=52-	=52-
.	.	2.c\	Su-	.	.	2f\	.
.	.	.	.	4d\	.	.	.
!	!	!	!	!LO:TX:t=P:problem:kreska pseudotaktowa	!	!	!
2E/	-pra	.	.	2e\	.	2g\	.
.	.	4B\	.	.	.	.	.
2F/	fir-	2A/	-p(ra)	1d	-mam	2a\	.
!LO:TX:t=P:problem:kreska pseudotaktowa	!	!LO:TX:t=P:problem:kreska pseudotaktowa	!	!	!	!LO:TX:t=P:problem:kreska pseudotaktowa	!
2G\	-mam	2B-X\	fir-	.	.	2g\	-m(am)
=53-	=53-	=53-	=53-	=53-	=53-	=53-	=53-
0D	pe-	2A/	.	0d	pe-	2f\	pe-
.	.	2G/	-m(am)	.	.	1g	.
.	.	1A	pe-	.	.	.	.
.	.	.	.	.	.	2f\	.
=54-	=54-	=54-	=54-	=54-	=54-	=54-	=54-
0Gl	-tram.	0G;;	-tr(am)	0dl	-tram.	0gl	-tram.
==	==	==	==	==	==	==	==
*-	*-	*-	*-	*-	*-	*-	*-
!!!system-decoration: [(s1,s2,s3,s4)]
!!!RDF**kern: > = above
!!!RDF**kern: < = below
!!!RDF**kern: l = terminal long
!!!ENC:Berenika Jozajtis
!!!END:2021-03-03
!!!EED: Mateusz Mrugas
!!!EST: 2021-03-19
